X: 1
T: Mairi's Wedding (for Pipes)          EACH TUNE:  ABABB
T: 8 x 40R3C (Cosh)
P: Lewis Bridal Song
C: From Matt Petrie, arr. T. Traub 12-29-97, mods. 2-24-2004
L: 1/4
M: 4/4
R: Reel
K: D
f|"D"A>A A B|d e f2|"Em"e d B d|"A"f e f<a|"D"A>A A B|"D"d e "Bm"f2|"Em"e d "G"B G|"A"A2 A2 ||
"D"a2 a>a |"A"a g "Bm"f2|"Em"e d "G"B d|"A"f e f2|"D"a2 a>a|"A"a g "Bm"f2|"Em"e d "G"B G|"A"A2 A2 |]
